white/payx.svg

<!-- Generated by IcoMoon.io -->
<svg version="1.1" xmlns="http://www.w3.org/2000/svg" width="32" height="32" viewBox="0 0 32 32">
<title>payx</title>
<path fill="#fff" d="M16 32c-8.837 0-16-7.163-16-16s7.163-16 16-16 16 7.163 16 16-7.163 16-16 16zM11.687 10.062h0.032c2.875 0.063 5.75-0.062 8.625 0.063 0.718 0 1.562 0.344 1.718 1.094 0.25 1.75-1.218 3.344-2.812 3.75-1.75 0.281-3.5 0.187-5.219 0.187-2.67 7.136-3.091 8.147-3.514 9.157l2.264-6.094c2.094 0 4.188 0.093 6.25-0.219 2.985-0.684 5.348-2.83 6.325-5.627l0.019-0.061c0.5-1.312 0.719-2.968-0.281-4.124-0.844-1.063-2.344-1.063-3.594-1.158l-8.563-0.030-1.25 3.063zM8 10.906v0.031l-1.375 3.438h10.188l1.343-3.469h-10.156zM9.625 15.156h0.031l-3.656 9.375h3.469l3.687-9.375h-3.531z"></path>
</svg>

<svg width="32" height="32" viewBox="0 0 32 32" xmlns="http://www.w3.org/2000/svg"><path d="M16 32C7.163 32 0 24.837 0 16S7.163 0 16 0s16 7.163 16 16-7.163 16-16 16zm-4.313-21.938h.032c2.875.063 5.75-.062 8.625.063.718 0 1.562.344 1.718 1.094.25 1.75-1.218 3.344-2.812 3.75-1.75.281-3.5.187-5.219.187a923.905 923.905 0 01-1.25 3.063c2.094 0 4.188.093 6.25-.219a8.712 8.712 0 006.344-5.688c.5-1.312.719-2.968-.281-4.124C24.25 7.125 22.75 7.125 21.5 7.03L12.937 7l-1.25 3.063zM8 10.906v.031l-1.375 3.438h10.188l1.343-3.469H8zm1.625 4.25h.031L6 24.531h3.469l3.687-9.375H9.625z" fill="#FFF"/></svg>
